X: 22
T:Rattlin' Roarin' Willie
M:9/8
L:1/8
R:Slip Jig
K:A
"A"e2A A2c e2f|"G"=gfg B2c d2f|"A"e2A A2c e2f|"A"aga c2d efg|!
"A"aga ecA cea|"G"=gfg B2c d2f|"A"ece "D"f2e fae|"A"cAc "G"B=GB "A"A3:||
